icon-themes/breeze_svg/cmd/sc_extrusionsurfacefloater.svg

<svg viewBox="0 0 16 16" xmlns="http://www.w3.org/2000/svg"><path d="m6.125 2-4.125 4v8h8l4-4v-8z" fill="#b3b3b3"/><path d="m5.3125 2c.01-.002-3.3125 3.3125-3.3125 3.3125v.6875 7.3125.6875h.6875 7.3125.6875s3.32345-3.28265 3.3125-3.28125v-.71875-8h-8zm.5 1h6.46875c-.83334.84433-1.62719 1.66118-1.96875 2h-3.3125-1-1-1.3125l1.3125-1.28125c-.0429568-.0031667.8125-.71875.8125-.71875zm7.1875.71875v6.59375l-.71875.6875c-.54463.55182-.73557.762-1.28125 1.3125v-1.3125-1-1-3-.3125zm-10 2.28125h2 1 4v4 1 2h-6.3125-.6875v-.6875z" fill="#4d4d4d"/></svg>

<svg xmlns="http://www.w3.org/2000/svg" viewBox="0 0 16 16">
 <path 
     style="fill:#b3b3b3" 
     d="M 6.125 2 L 2 6 L 2 14 L 10 14 L 14 10 L 14 2 L 6.125 2 z "
     />
 <path 
     style="fill:#4d4d4d" 
     d="M 5.3125 2 C 5.3225 1.998 2 5.3125 2 5.3125 L 2 6 L 2 13.3125 L 2 14 L 2.6875 14 L 10 14 L 10.6875 14 C 10.6875 14 14.01095 10.71735 14 10.71875 L 14 10 L 14 2 L 6 2 L 5.3125 2 z M 5.8125 3 L 12.28125 3 C 11.44791 3.84433 10.65406 4.66118 10.3125 5 L 7 5 L 6 5 L 5 5 L 3.6875 5 L 5 3.71875 C 4.9570432 3.7155833 5.8125 3 5.8125 3 z M 13 3.71875 L 13 10.3125 L 12.28125 11 C 11.73662 11.55182 11.54568 11.762 11 12.3125 L 11 11 L 11 10 L 11 9 L 11 6 L 11 5.6875 L 13 3.71875 z M 3 6 L 5 6 L 6 6 L 10 6 L 10 10 L 10 11 L 10 13 L 3.6875 13 L 3 13 L 3 12.3125 L 3 6 z "
     />
 </svg>
